X: 1
T: Lord Lovat's Lament
M: C
L: 1/8
R: Slow March
S: http://tunearch.org/wiki/Lord_Lovat%27s_Lament 2017-4-15
Z: AK/Fiddler's Companion
K: G
GA |\
B2 B>d cB AG | B<d d>e d2 e>f | g2 dg ed BG | B<A A>B A2 G>A |
B2 B>d cB AG | B<d d>e d2 BG | c>d ed/c/ B<d c>A | G2 G>A G2 ||
ef |\
g2 dg ed BG | B<d d>e d2 ef | g2 dg ed BG | b<A A>B A2 G>A |
B2 Bd cB AG | B<d d>e d2 BG | c>d ed/c/ B<d c>A | G2 G>A G2 |]
